frontend/src/assets/icons/inbox-01.svg

<svg width="24" height="24" viewBox="0 0 24 24" fill="none" xmlns="http://www.w3.org/2000/svg">
<g id="inbox-01">
<path id="Icon" d="M2.5 12H5.88197C6.56717 12 7.19357 12.3871 7.5 13C7.80643 13.6129 8.43283 14 9.11803 14H14.882C15.5672 14 16.1936 13.6129 16.5 13C16.8064 12.3871 17.4328 12 18.118 12H21.5M8.96656 4H15.0334C16.1103 4 16.6487 4 17.1241 4.16396C17.5445 4.30896 17.9274 4.5456 18.2451 4.85675C18.6043 5.2086 18.8451 5.6902 19.3267 6.65337L21.4932 10.9865C21.6822 11.3645 21.7767 11.5535 21.8434 11.7515C21.9026 11.9275 21.9453 12.1085 21.971 12.2923C22 12.4992 22 12.7105 22 13.1331V15.2C22 16.8802 22 17.7202 21.673 18.362C21.3854 18.9265 20.9265 19.3854 20.362 19.673C19.7202 20 18.8802 20 17.2 20H6.8C5.11984 20 4.27976 20 3.63803 19.673C3.07354 19.3854 2.6146 18.9265 2.32698 18.362C2 17.7202 2 16.8802 2 15.2V13.1331C2 12.7105 2 12.4992 2.02897 12.2923C2.05471 12.1085 2.09744 11.9275 2.15662 11.7515C2.22326 11.5535 2.31776 11.3645 2.50675 10.9865L4.67331 6.65337C5.1549 5.69019 5.3957 5.2086 5.75495 4.85675C6.07263 4.5456 6.45551 4.30896 6.87589 4.16396C7.35125 4 7.88969 4 8.96656 4Z" stroke="black" stroke-width="2" stroke-linecap="round" stroke-linejoin="round"/>
</g>
</svg>

<svg xmlns="http://www.w3.org/2000/svg" width="24" height="24" fill="none" viewBox="0 0 24 24">
  <path stroke="#000" stroke-linecap="round" stroke-linejoin="round" stroke-width="2" d="M2.5 12h3.382c.685 0 1.312.387 1.618 1 .306.613.933 1 1.618 1h5.764c.685 0 1.312-.387 1.618-1 .306-.613.933-1 1.618-1H21.5M8.967 4h6.066c1.077 0 1.616 0 2.091.164a3 3 0 0 1 1.121.693c.36.352.6.833 1.082 1.796l2.166 4.333c.19.378.284.567.35.765.06.177.102.357.128.541.029.207.029.418.029.841V15.2c0 1.68 0 2.52-.327 3.162a3 3 0 0 1-1.311 1.311C19.72 20 18.88 20 17.2 20H6.8c-1.68 0-2.52 0-3.162-.327a3 3 0 0 1-1.311-1.311C2 17.72 2 16.88 2 15.2v-2.067c0-.422 0-.634.029-.84.026-.184.068-.365.128-.541.066-.199.16-.388.35-.766l2.166-4.333c.482-.963.723-1.444 1.082-1.796a3 3 0 0 1 1.12-.693C7.352 4 7.89 4 8.968 4Z"/>
</svg>
